X:1
T:The Durant Jail
M:6/8
L:1/8
K:C
 E| G2 GG-F E| F F3/2 F/2F-E D/2D/2| EEEE-G G/2G/2| C3/2 C/2 CA,-G, A,|\
 C3A,-G, G,/2 G,/2| C2 CE-G G| E3D-C D| C3- C2||
